icons/svgs/xmark-circle-solid.svg

<svg width="24" height="24" viewBox="0 0 24 24" fill="none" xmlns="http://www.w3.org/2000/svg">
<path d="M12 22C8.40625 22 5.125 20.125 3.32812 17C1.53125 13.9141 1.53125 10.125 3.32812 7C5.125 3.91406 8.40625 2 12 2C15.5547 2 18.8359 3.91406 20.6328 7C22.4297 10.125 22.4297 13.9141 20.6328 17C18.8359 20.125 15.5547 22 12 22ZM8.83594 8.83594C8.44531 9.22656 8.44531 9.8125 8.83594 10.1641L10.6719 12L8.83594 13.8359C8.44531 14.2266 8.44531 14.8125 8.83594 15.1641C9.1875 15.5547 9.77344 15.5547 10.125 15.1641L11.9609 13.3281L13.7969 15.1641C14.1875 15.5547 14.7734 15.5547 15.125 15.1641C15.5156 14.8125 15.5156 14.2266 15.125 13.8359L13.2891 12L15.125 10.1641C15.5156 9.8125 15.5156 9.22656 15.125 8.83594C14.7734 8.48438 14.1875 8.48438 13.7969 8.83594L11.9609 10.6719L10.125 8.83594C9.77344 8.48438 9.1875 8.48438 8.83594 8.83594Z" fill="black"/>
</svg>

<svg xmlns="http://www.w3.org/2000/svg" width="24" height="24" fill="currentColor" class="icon-xmark-circle-solid" viewBox="0 0 24 24">
  <mask id="a" width="21" height="20" x="1" y="2" maskUnits="userSpaceOnUse" style="mask-type:alpha">
    <path d="M12 22c-3.594 0-6.875-1.875-8.672-5-1.797-3.086-1.797-6.875 0-10C5.125 3.914 8.406 2 12 2c3.555 0 6.836 1.914 8.633 5 1.797 3.125 1.797 6.914 0 10A9.93 9.93 0 0 1 12 22M8.836 8.836c-.39.39-.39.976 0 1.328L10.672 12l-1.836 1.836c-.39.39-.39.976 0 1.328.351.39.937.39 1.289 0l1.836-1.836 1.836 1.836c.39.39.976.39 1.328 0 .39-.351.39-.937 0-1.328L13.289 12l1.836-1.836c.39-.351.39-.937 0-1.328-.352-.352-.937-.352-1.328 0l-1.836 1.836-1.836-1.836a.92.92 0 0 0-1.29 0"/>
  </mask>
  <g mask="url(#a)">
    <path d="M0 0h24v24H0z"/>
  </g>
</svg>
